panel/hangouts-notification.svg

<?xml version="1.0" encoding="UTF-8" standalone="no"?>
<svg
   width="24"
   height="24"
   version="1.1"
   id="svg11"
   sodipodi:docname="hangouts-notification.svg"
   inkscape:version="1.1.2 (0a00cf5339, 2022-02-04)"
   xmlns:inkscape="http://www.inkscape.org/namespaces/inkscape"
   xmlns:sodipodi="http://sodipodi.sourceforge.net/DTD/sodipodi-0.dtd"
   xmlns="http://www.w3.org/2000/svg"
   xmlns:svg="http://www.w3.org/2000/svg">
  <sodipodi:namedview
     id="namedview13"
     pagecolor="#000000"
     bordercolor="#666666"
     borderopacity="1.0"
     inkscape:pageshadow="2"
     inkscape:pageopacity="0"
     inkscape:pagecheckerboard="0"
     showgrid="false"
     inkscape:zoom="28.416667"
     inkscape:cx="12"
     inkscape:cy="11.964809"
     inkscape:window-width="1811"
     inkscape:window-height="967"
     inkscape:window-x="0"
     inkscape:window-y="29"
     inkscape:window-maximized="1"
     inkscape:current-layer="g9" />
  <defs
     id="defs3">
    <style
       id="current-color-scheme"
       type="text/css">
   .ColorScheme-Text { color:#eeeeec; } .ColorScheme-Highlight { color:#367bf0; } .ColorScheme-NeutralText { color:#ffcc44; } .ColorScheme-PositiveText { color:#3db47e; } .ColorScheme-NegativeText { color:#dd4747; }
  </style>
  </defs>
  <g
     transform="translate(1,1)"
     id="g9">
    <path
       style="fill:currentColor"
       class="ColorScheme-Text"
       d="m 11,3 c -3.866,0 -7,3.134 -7,7 0,3.866 3.134,7 7,7 v 1.326843 l 0.630682,0.364817 c 0,0 -0.390862,0.20556 0,0 C 13.351505,17.786652 18,14.889432 18,10 18,6.134 14.866,3 11,3 Z M 7.5,8 h 2 C 9.5,8 10,8 10,8.5 V 11 C 10,12.21 9,13 8.2,13 8,13 8,12.826 8,12.826 V 12.2 C 8,12.2 8,12 8.2,12 8.2,12 9,11.6 9,11 H 7.5 C 7.5,11 7,11 7,10.5 v -2 C 7,8.5 7,8 7.5,8 Z m 4,0 h 2 c 0,0 0.5,0 0.5,0.5 V 11 c 0,1.21 -1,2 -1.8,2 C 12,13 12,12.826 12,12.826 V 12.2 c 0,0 0,-0.2 0.2,-0.2 0,0 0.8,-0.4 0.8,-1 h -1.5 c 0,0 -0.5,0 -0.5,-0.5 v -2 C 11,8.5 11,8 11.5,8 Z"
       id="path5"
       sodipodi:nodetypes="sscccsssscssscccccscsscssscccccscs" />
    <circle
       style="fill:currentColor"
       class="ColorScheme-Highlight"
       cx="20"
       cy="4"
       r="2"
       id="circle7" />
  </g>
</svg>

<svg xmlns="http://www.w3.org/2000/svg" width="24" height="24" version="1.1">
 <defs>
  <style id="current-color-scheme" type="text/css">
   .ColorScheme-Text { color:#eeeeec; } .ColorScheme-Highlight { color:#367bf0; } .ColorScheme-NeutralText { color:#ffcc44; } .ColorScheme-PositiveText { color:#3db47e; } .ColorScheme-NegativeText { color:#dd4747; }
  </style>
 </defs>
 <g transform="translate(1,1)">
  <path style="fill:currentColor" class="ColorScheme-Text" d="M 11,3 C 7.134,3 4,6.134 4,10 4,13.866 7.134,17 11,17 V 19 C 11,19 18,16 18,10 18,6.134 14.866,3 11,3 Z M 7.5,8 H 9.5 C 9.5,8 10,8 10,8.5 V 11 C 10,12.21 9,13 8.2,13 8,13 8,12.826 8,12.826 V 12.2 C 8,12.2 8,12 8.2,12 8.2,12 9,11.6 9,11 H 7.5 C 7.5,11 7,11 7,10.5 V 8.5 C 7,8.5 7,8 7.5,8 Z M 11.5,8 H 13.5 C 13.5,8 14,8 14,8.5 V 11 C 14,12.21 13,13 12.2,13 12,13 12,12.826 12,12.826 V 12.2 C 12,12.2 12,12 12.2,12 12.2,12 13,11.6 13,11 H 11.5 C 11.5,11 11,11 11,10.5 V 8.5 C 11,8.5 11,8 11.5,8 Z"/>
  <circle style="fill:currentColor" class="ColorScheme-Highlight" cx="20" cy="4" r="2"/>
 </g>
</svg>
